X: 08084
T: The OLIVE STREET JIG
C: Bob McQuillen 7 Nov 90
B: Bob's Note Book 8 #84
%R: jig
Z: 2021 John Chambers <jc:trillian.mit.edu>
M: 6/8
L: 1/8
K: G	% and Em
A \
| BGB AGA | BGE DB,A, | B,DD EDD | B,DE EGA |\
| BGB AGA | BGE DB,A, | G,B,D EGA | BGG G2 :|
|: F \
| EFG ABA | GBe dBd | efg fga | gab a2a |\
| bgb afd | efg dBd | BGE AFD | E>FE E2 :|
%%begintext align
%% Actually, it's East Olive St., and that's where
%% Dina & Frank Blade live now. I call them
%% my "West Coast Family" and they sure are nice
%% to me. For more information, please see the
%% introduction to "RAVENNA REEL" in this book.
%%endtext

%%sep 1 1 500

%%sep 1 1 500

